X: 112
T: Mr. Murray
R:Strathspey
C:William Martin
S:MacDonald - Skye Collection
N:pg.29
M:C
L:1/8
K:A
c|E<A, C>F E>e d/c/B/A/|F>DA>F E>d c<e|E<A, C>E E>e d/c/B/A/|F>AE>G A2A:|
e|a>a g/a/b/g/ ae ce|fAgA aece|a<a g/a/b/g/ ae ce|f>d (3agf e2 eg|a>a g/a/b/g/
ae ce|
fA gA aece|(3agf (3edc (3fed (3cBA|F>A E>G A2A||


